docs/img/logo-algolia.svg

<?xml version="1.0" encoding="UTF-8" standalone="no"?>
<svg width="113px" height="36px" viewBox="0 0 113 36" version="1.1" xmlns="http://www.w3.org/2000/svg" xmlns:xlink="http://www.w3.org/1999/xlink" xmlns:sketch="http://www.bohemiancoding.com/sketch/ns">
    <!-- Generator: Sketch 3.3.3 (12072) - http://www.bohemiancoding.com/sketch -->
    <title>logo-algolia</title>
    <desc>Created with Sketch.</desc>
    <defs></defs>
    <g id="Page-1" stroke="none" stroke-width="1" fill="none" fill-rule="evenodd" sketch:type="MSPage">
        <g id="instansearch-website" sketch:type="MSArtboardGroup" transform="translate(-283.000000, -137.000000)">
            <g id="logo-algolia" sketch:type="MSLayerGroup" transform="translate(283.000000, 137.000000)">
                <g id="Page-1" sketch:type="MSShapeGroup">
                    <g id="Algolia_logo_bg-dark">
                        <path d="M67.9153999,13.9754935 L66.4439217,19.2135775 L71.1830064,16.604363 C70.4947477,15.3366091 69.3203245,14.3780135 67.9153999,13.9754935 L67.9153999,13.9754935 Z" id="Fill-1" fill="#46AEDA"></path>
                        <path d="M58.7992335,9.69684704 C58.0902074,8.98141201 56.9399691,8.98187002 56.230943,9.69684704 L55.9100204,10.0206707 C55.2009942,10.7356477 55.2014482,11.896283 55.9100204,12.6117181 L56.2518234,12.9561529 C56.9794604,11.7781126 57.9059151,10.7383959 58.9826178,9.88234717 L58.7992335,9.69684704 L58.7992335,9.69684704 Z" id="Fill-2" fill="#46AEDA"></path>
                        <path d="M69.892632,7.90367923 C69.8953555,7.86428907 69.9039799,7.82673103 69.9039799,7.78642482 L69.9039799,6.87037483 C69.9035259,5.85905565 69.0910056,5.03873292 68.0882922,5.03827487 L64.9103845,5.03827487 C63.9081251,5.03873292 63.0951508,5.85859764 63.0951508,6.87037483 L63.0951508,7.77039393 C64.1069427,7.48458636 65.1713897,7.32839984 66.2726044,7.32839984 C67.5349612,7.32839984 68.7510181,7.53176291 69.892632,7.90367923" id="Fill-3" fill="#46AEDA"></path>
                        <path d="M66.4014111,12.0637256 C70.3851308,12.0637256 73.6264751,15.3198748 73.6264751,19.3217901 C73.6264751,23.3237054 70.3851308,26.5798546 66.4014111,26.5798546 C62.4176915,26.5798546 59.1763472,23.3237054 59.1763472,19.3217901 C59.1763472,15.3198748 62.4176915,12.0637256 66.4014111,12.0637256 L66.4014111,12.0637256 Z M56.2863216,19.3217901 C56.2863216,24.9331317 60.8142033,29.4830805 66.4014111,29.4830805 C71.9886187,29.4830805 76.5165007,24.9331317 76.5165007,19.3217901 C76.5165007,13.7104485 71.9886187,9.16049979 66.4014111,9.16049979 C60.8142033,9.16049979 56.2863216,13.7104485 56.2863216,19.3217901 L56.2863216,19.3217901 Z" id="Fill-4" fill="#46AEDA"></path>
                        <path d="M20.1096501,28.9325225 C19.6924959,27.8190638 19.3007612,26.7248421 18.9330845,25.6489414 C18.5654077,24.5730407 18.1850211,23.4783609 17.7932864,22.3653602 L6.24823561,22.3653602 L3.93187191,28.9325225 L0.218336457,28.9325225 C1.19835394,26.2118541 2.11754589,23.6954648 2.97591229,21.3824386 C3.83382478,19.0698704 4.67267254,16.8745566 5.49472517,14.7974133 C6.31541605,12.7193539 7.13065987,10.7347317 7.93954878,8.84263044 C8.74843769,6.9505292 9.59409429,5.07720702 10.4765186,3.22220581 L13.7488419,3.22220581 C14.6312662,5.07720702 15.4769227,6.9505292 16.2858116,8.84263044 C17.0947005,10.7347317 17.9094905,12.7193539 18.7310892,14.7974133 C19.5517801,16.8745566 20.3910818,19.0698704 21.2494482,21.3824386 C22.1073606,23.6954648 23.0265526,26.2118541 24.007024,28.9325225 L20.1096501,28.9325225 L20.1096501,28.9325225 Z M16.7637915,19.3978163 C15.9789604,17.2455569 15.2009382,15.1624592 14.4292709,13.1462332 C13.6566957,11.1304653 12.8537078,9.19530967 12.020761,7.33985045 C11.1623946,9.19530967 10.3476047,11.1304653 9.57593741,13.1462332 C8.80381619,15.1624592 8.03714202,17.2455569 7.27773058,19.3978163 L16.7637915,19.3978163 L16.7637915,19.3978163 Z" id="Fill-5" fill="#FFFFFF"></path>
                        <path d="M32.9778833,29.3030649 C30.86987,29.253598 29.3751049,28.7964891 28.4926807,27.9303638 C27.6098025,27.0651546 27.1694982,25.7171871 27.1694982,23.8864612 L27.1694982,0.736046158 L30.5879845,0.142445772 L30.5879845,23.3299608 C30.5879845,23.8997439 30.637462,24.3692196 30.735055,24.7402198 C30.8335563,25.110762 30.9928828,25.4080202 31.2130348,25.6306204 C31.4336409,25.8527625 31.7282362,26.0199416 32.0959131,26.1312417 C32.4640437,26.2425417 32.9170578,26.3355208 33.4558632,26.4097209 L32.9778833,29.3030649" id="Fill-6" fill="#FFFFFF"></path>
                        <path d="M49.2659646,27.0028632 C48.9722773,27.2016461 48.4021512,27.4544759 47.5564948,27.7636427 C46.710838,28.0728096 45.7240116,28.2276221 44.5964696,28.2276221 C43.4444158,28.2276221 42.3595421,28.0416639 41.3427571,27.6711217 C40.3255181,27.2996634 39.4367387,26.7248421 38.6768736,25.9457416 C37.9170081,25.166183 37.3164695,24.1960861 36.8752573,23.0336187 C36.434499,21.8711512 36.2134392,20.4860837 36.2134392,18.878416 C36.2134392,17.4686151 36.4213355,16.1760685 36.8384896,15.0012344 C37.2551899,13.8268584 37.8616297,12.812333 38.6587167,11.9590325 C39.4548956,11.1057319 40.4290123,10.4379315 41.5815201,9.95563118 C42.7335739,9.47333085 44.0326984,9.23195169 45.4788938,9.23195169 C47.07216,9.23195169 48.4629767,9.35012212 49.6522523,9.58463091 C50.8410739,9.82005576 51.8397023,10.0362436 52.6485909,10.2336523 L52.6485909,27.4485215 C52.6485909,30.4165234 51.8891795,32.5678668 50.3694489,33.9034677 C48.8488105,35.2390686 46.5451566,35.906411 43.4566715,35.906411 C42.2555943,35.906411 41.1221511,35.8083938 40.0558883,35.6105267 C38.9896258,35.411744 38.0640789,35.1776932 37.2801557,34.9056264 L37.9052061,31.9005244 C38.5910823,32.1716752 39.4308379,32.4135125 40.4235651,32.6237458 C41.4162924,32.8335213 42.4516883,32.939325 43.5302071,32.939325 C45.5646851,32.939325 47.0290374,32.5312249 47.9241713,31.7145664 C48.8188516,30.8988238 49.2659646,29.5998648 49.2659646,27.8190638 L49.2659646,27.0028632 L49.2659646,27.0028632 Z M47.8506361,12.4042328 C47.2741552,12.3181241 46.4961328,12.2741537 45.5161156,12.2741537 C43.6777316,12.2741537 42.2619491,12.8810368 41.2692219,14.0925129 C40.2764943,15.304447 39.7803579,16.9116567 39.7803579,18.915058 C39.7803579,20.0285167 39.9206198,20.9807507 40.2029591,21.7722178 C40.4848447,22.5641431 40.8647773,23.2186608 41.3427571,23.7385191 C41.820737,24.2574614 42.3722522,24.6412864 42.9973026,24.8881618 C43.6223532,25.1359534 44.2660145,25.2591621 44.9278327,25.2591621 C45.8343147,25.2591621 46.6677154,25.129541 47.4275808,24.8698409 C48.1869923,24.6096827 48.787985,24.3073862 49.2291971,23.9611193 L49.2291971,12.6827119 C48.8855782,12.5837785 48.426663,12.4912575 47.8506361,12.4042328 L47.8506361,12.4042328 Z" id="Fill-7" fill="#FFFFFF"></path>
                        <path d="M85.843903,29.3035227 C83.7354357,29.253598 82.2406706,28.7969471 81.3582463,27.9308219 C80.4758221,27.0656126 80.03461,25.7171871 80.03461,23.8869192 L80.03461,0.736504183 L83.4544579,0.142903797 L83.4544579,23.3299608 C83.4544579,23.8997439 83.5030277,24.3692196 83.6010747,24.7402198 C83.699122,25.11122 83.8584485,25.4080202 84.0795086,25.6306204 C84.2996606,25.8532205 84.5933482,26.0203996 84.9614788,26.1316997 C85.3291556,26.2429998 85.7821697,26.3355208 86.3218829,26.4097209 L85.843903,29.3035227" id="Fill-8" fill="#FFFFFF"></path>
                        <path d="M91.8365806,6.15310769 C91.2242399,6.15310769 90.7026836,5.94882856 90.2746353,5.54118631 C89.8452252,5.13262803 89.630974,4.58299803 89.630974,3.89000625 C89.630974,3.19747245 89.8452252,2.64692641 90.2746353,2.23928417 C90.7026836,1.83072588 91.2242399,1.62690476 91.8365806,1.62690476 C92.4493752,1.62690476 92.9704778,1.83072588 93.3998879,2.23928417 C93.8279362,2.64692641 94.0430951,3.19747245 94.0430951,3.89000625 C94.0430951,4.58299803 93.8279362,5.13262803 93.3998879,5.54118631 C92.9704778,5.94882856 92.4493752,6.15310769 91.8365806,6.15310769 L91.8365806,6.15310769 L91.8365806,6.15310769 Z M90.1457214,9.64050997 L93.5651155,9.64050997 L93.5651155,28.9325225 L90.1457214,28.9325225 L90.1457214,9.64050997 L90.1457214,9.64050997 Z" id="Fill-9" fill="#FFFFFF"></path>
                        <path d="M105.62446,9.15820966 C106.99712,9.15820966 108.155075,9.33821347 109.099232,9.69638902 C110.042482,10.0550226 110.802347,10.5620563 111.378375,11.217032 C111.954401,11.8729238 112.365201,12.6520243 112.610318,13.5547915 C112.854983,14.4575588 112.977995,15.4528471 112.977995,16.5411145 L112.977995,28.5990803 C112.683854,28.648547 112.273055,28.7163347 111.746505,28.8029014 C111.219048,28.8894682 110.624864,28.9696225 109.963046,29.0438225 C109.301228,29.1180225 108.584031,29.1858103 107.812364,29.2476437 C107.039788,29.3090191 106.273568,29.3406227 105.514157,29.3406227 C104.435184,29.3406227 103.442911,29.2293226 102.535975,29.0067226 C101.629039,28.7841224 100.844662,28.4314432 100.182844,27.9496009 C99.5210253,27.4673006 99.006278,26.8306458 98.6386011,26.0387206 C98.2709243,25.2472535 98.087086,24.2950195 98.087086,23.1820188 C98.087086,22.1189428 98.3013371,21.2033508 98.7307473,20.436617 C99.1587956,19.6703412 99.7411774,19.0520074 100.476985,18.5816158 C101.212339,18.1121402 102.070251,17.7654153 103.050723,17.5428151 C104.03074,17.320215 105.060235,17.2089149 106.139207,17.2089149 C106.481918,17.2089149 106.837793,17.2272359 107.20547,17.2643359 C107.573147,17.3014359 107.922667,17.3518187 108.253122,17.413194 C108.584031,17.4750274 108.872271,17.5304484 109.117843,17.5799151 C109.362507,17.6298398 109.534089,17.6669399 109.632137,17.6912152 L109.632137,16.7266146 C109.632137,16.1577475 109.570857,15.5952928 109.448298,15.0383345 C109.325285,14.4818341 109.104679,13.9876251 108.78648,13.5547915 C108.467827,13.1219579 108.032516,12.775691 107.481001,12.5155328 C106.929485,12.2562907 106.212289,12.1262116 105.330318,12.1262116 C104.202322,12.1262116 103.216404,12.206824 102.370293,12.3675908 C101.525091,12.5283575 100.893685,12.6955367 100.476985,12.8682121 L100.07254,10.0115102 C100.513753,9.81410145 101.24956,9.62218896 102.278601,9.43668885 C103.308096,9.25073071 104.423382,9.15820966 105.62446,9.15820966 L105.62446,9.15820966 L105.62446,9.15820966 Z M105.918601,26.4468209 C106.72749,26.4468209 107.444687,26.4280419 108.069737,26.3909418 C108.694788,26.3538418 109.215436,26.2865121 109.632137,26.1871207 L109.632137,20.436617 C109.386565,20.3134083 108.988475,20.2080625 108.437414,20.1214958 C107.885445,20.0349291 107.217726,19.9909587 106.433349,19.9909587 C105.918601,19.9909587 105.372987,20.0285167 104.797414,20.1027168 C104.221387,20.1769168 103.69393,20.3317293 103.216404,20.5662381 C102.73797,20.8016629 102.339427,21.1227384 102.021227,21.5312967 C101.702574,21.938939 101.543248,22.4771183 101.543248,23.1449187 C101.543248,24.3815862 101.934982,25.2408411 102.719813,25.7231414 C103.50419,26.2058997 104.570453,26.4468209 105.918601,26.4468209 L105.918601,26.4468209 L105.918601,26.4468209 Z" id="Fill-10" fill="#FFFFFF"></path>
                    </g>
                </g>
            </g>
        </g>
    </g>
</svg>

<svg width="113" height="36" viewBox="0 0 113 36" xmlns="http://www.w3.org/2000/svg"><title>logo-algolia</title><desc>Created with Sketch.</desc><g id="Page-1" fill="none" fill-rule="evenodd"><g><g><g><g><path d="M67.915 13.975l-1.47 5.24 4.738-2.61c-.688-1.268-1.863-2.227-3.268-2.63z" fill="#46AEDA"/><path d="M58.8 9.697c-.71-.716-1.86-.715-2.57 0l-.32.324c-.71.716-.71 1.876 0 2.592l.342.344c.727-1.178 1.654-2.218 2.73-3.074l-.183-.185z" fill="#46AEDA"/><path d="M69.893 7.904c.002-.04.01-.077.01-.118V6.87c0-1.01-.812-1.83-1.815-1.832H64.91c-1.002 0-1.815.82-1.815 1.832v.9c1.012-.285 2.076-.442 3.178-.442 1.262 0 2.478.204 3.62.576" fill="#46AEDA"/><path d="M66.4 12.064c3.985 0 7.226 3.256 7.226 7.258 0 4.002-3.24 7.258-7.225 7.258-3.982 0-7.224-3.256-7.224-7.258 0-4.002 3.242-7.258 7.225-7.258zm-10.114 7.258c0 5.61 4.528 10.16 10.115 10.16 5.59 0 10.117-4.55 10.117-10.16C76.517 13.71 71.99 9.16 66.4 9.16c-5.586 0-10.114 4.55-10.114 10.162z" fill="#46AEDA"/><path d="M20.11 28.933c-.418-1.114-.81-2.208-1.177-3.284-.368-1.077-.748-2.172-1.14-3.285H6.248l-2.316 6.568H.218c.98-2.72 1.9-5.238 2.758-7.55.858-2.313 1.697-4.508 2.52-6.586.82-2.078 1.635-4.062 2.444-5.954.808-1.892 1.654-3.766 2.537-5.62h3.272c.88 1.854 1.727 3.728 2.536 5.62.81 1.892 1.623 3.876 2.445 5.954.822 2.078 1.66 4.273 2.52 6.585.857 2.313 1.777 4.83 2.757 7.55H20.11zm-3.346-9.535c-.785-2.152-1.563-4.236-2.335-6.252-.773-2.016-1.576-3.95-2.41-5.806-.858 1.855-1.672 3.79-2.444 5.806s-1.54 4.1-2.298 6.252h9.486z" fill="#fff"/><path d="M32.978 29.303c-2.108-.05-3.603-.507-4.485-1.373-.883-.865-1.324-2.213-1.324-4.044V.736l3.418-.594V23.33c0 .57.05 1.04.147 1.41.1.37.258.668.478.89.22.223.515.39.883.5.368.113.82.206 1.36.28l-.478 2.893" fill="#fff"/><path d="M49.266 27.003c-.294.2-.864.45-1.71.76-.845.31-1.832.465-2.96.465-1.152 0-2.236-.186-3.253-.557-1.017-.37-1.906-.945-2.666-1.724-.76-.78-1.36-1.75-1.802-2.912-.44-1.163-.662-2.548-.662-4.156 0-1.41.208-2.702.625-3.877.417-1.173 1.024-2.188 1.82-3.04.797-.854 1.77-1.522 2.924-2.004 1.152-.483 2.45-.724 3.897-.724 1.592 0 2.983.118 4.172.353 1.19.235 2.188.45 2.997.65v17.214c0 2.967-.76 5.118-2.28 6.453-1.52 1.336-3.825 2.003-6.913 2.003-1.2 0-2.335-.098-3.4-.295-1.067-.198-1.993-.432-2.777-.704l.625-3.005c.686.272 1.526.514 2.52.724.99.21 2.027.315 3.105.315 2.035 0 3.5-.41 4.394-1.225.895-.816 1.342-2.115 1.342-3.896v-.817zm-1.415-14.6c-.576-.085-1.354-.13-2.334-.13-1.838 0-3.254.608-4.247 1.82-.994 1.21-1.49 2.82-1.49 4.822 0 1.114.14 2.066.423 2.857.282.792.662 1.447 1.14 1.967.478.517 1.03.9 1.654 1.148.625.248 1.27.37 1.93.37.907 0 1.74-.128 2.5-.388s1.36-.563 1.802-.91V12.684c-.344-.1-.803-.192-1.38-.28z" fill="#fff"/><path d="M85.844 29.304c-2.11-.05-3.603-.507-4.486-1.373-.882-.864-1.323-2.213-1.323-4.043V.737l3.42-.594V23.33c0 .57.048 1.04.146 1.41.1.37.258.668.48.89.22.223.513.39.88.502.37.11.822.204 1.362.278l-.478 2.894" fill="#fff"/><path d="M91.837 6.153c-.613 0-1.134-.204-1.562-.612-.43-.407-.644-.957-.644-1.65s.215-1.243.645-1.65c.428-.41.95-.613 1.562-.613.612 0 1.133.204 1.563.612.428.407.643.957.643 1.65s-.215 1.243-.643 1.65c-.43.41-.95.613-1.563.613zm-1.69 3.488h3.418v19.293h-3.42V9.64z" fill="#fff"/><path d="M105.624 9.158c1.373 0 2.53.18 3.475.538.942.36 1.702.866 2.278 1.52.576.657.987 1.436 1.232 2.34.245.902.368 1.897.368 2.985V28.6c-.294.05-.705.116-1.23.203-.53.086-1.123.167-1.785.24-.662.075-1.38.143-2.15.205-.773.06-1.54.093-2.3.093-1.078 0-2.07-.11-2.977-.333-.907-.223-1.69-.576-2.353-1.057-.662-.483-1.177-1.12-1.544-1.91-.37-.793-.553-1.745-.553-2.858 0-1.063.214-1.98.644-2.745.43-.767 1.01-1.385 1.747-1.855.735-.47 1.593-.817 2.574-1.04.98-.222 2.01-.333 3.09-.333.342 0 .698.017 1.065.054.368.037.718.088 1.048.15.33.06.62.116.865.166s.416.087.514.11v-.963c0-.57-.06-1.132-.184-1.69-.123-.555-.343-1.05-.662-1.482-.318-.433-.753-.78-1.305-1.04-.55-.26-1.268-.39-2.15-.39-1.128 0-2.114.082-2.96.243-.845.16-1.476.328-1.893.5l-.404-2.856c.44-.198 1.177-.39 2.206-.575 1.028-.186 2.143-.28 3.344-.28zm.295 17.29c.807 0 1.525-.02 2.15-.057.625-.036 1.145-.103 1.562-.203v-5.75c-.245-.124-.644-.23-1.195-.316-.552-.085-1.22-.13-2.004-.13-.514 0-1.06.04-1.636.113-.576.074-1.103.23-1.58.463-.48.236-.878.557-1.196.965-.317.41-.477.947-.477 1.615 0 1.237.392 2.096 1.177 2.578.784.483 1.85.724 3.2.724z" fill="#fff"/></g></g></g></g></g></svg>
